src/assets/selectIconsSpells/sacro_2.svg

<svg xmlns="http://www.w3.org/2000/svg" viewBox="0 0 512 512"><path d="M0 0h512v512H0z"/><path fill="#fff" d="M373.773 42.58c-15.476-.073-32.25 4.32-48.15 13.15-18.172 10.09-32.025 24.21-39.816 39.635-4.937 9.773-7.42 20.355-6.534 30.48-142.235 35.935-140.19 127.28-148.97 211.997-8.83 85.21 31.418 103.056 84.02 110.176-75.802-1.733-65.734-.497-113.788-.364 0 0-45.96 45.96-49.496 48.79 52.562-2.26 344.12 23.87 345.276-31.32.793-37.823-78.186-55.176-135.845-74.976-21.276-7.306-29.62-92.502-.2-169.12 20.044 61.258 65.636 140.037 87.248 143.894 24.542.216 82.012-121.896 113.443-166.68-28.153-15.767-62.88 16.397-77.355 40.235.612 13.085 1.608 31.266 5.567 35.2l-40.947 42.313c-26.15-43.612-43.326-105.71-50.62-158.75-.257.126-.498.256-.75.383.185-.22.38-.437.567-.658 7.89 5.473 17.617 8.64 27.898 9.56 17.213 1.542 36.523-2.75 54.696-12.84 18.172-10.09 32.026-24.214 39.818-39.64 7.79-15.426 9.48-32.862 1.437-47.348-8.042-14.485-23.737-22.27-40.95-23.812-2.15-.193-4.336-.295-6.547-.305z"/></svg>

<?xml version="1.0" encoding="UTF-8" standalone="no"?>
<!DOCTYPE svg PUBLIC "-//W3C//DTD SVG 1.1//EN" "http://www.w3.org/Graphics/SVG/1.1/DTD/svg11.dtd">
<svg width="100%" height="100%" viewBox="0 0 512 512" version="1.1" xmlns="http://www.w3.org/2000/svg" xmlns:xlink="http://www.w3.org/1999/xlink" xml:space="preserve" xmlns:serif="http://www.serif.com/" style="fill-rule:evenodd;clip-rule:evenodd;stroke-linejoin:round;stroke-miterlimit:2;">
    <rect x="0" y="0" width="512" height="512" style="fill-rule:nonzero;"/>
    <path d="M373.773,42.58C358.297,42.507 341.523,46.9 325.623,55.73C307.451,65.82 293.598,79.94 285.807,95.365C280.87,105.138 278.387,115.72 279.273,125.845C137.038,161.78 139.083,253.125 130.303,337.842C121.473,423.052 161.721,440.898 214.323,448.018C138.521,446.285 148.589,447.521 100.535,447.654C100.535,447.654 54.575,493.614 51.039,496.444C103.601,494.184 395.159,520.314 396.315,465.124C397.108,427.301 318.129,409.948 260.47,390.148C239.194,382.842 230.85,297.646 260.27,221.028C280.314,282.286 325.906,361.065 347.518,364.922C372.06,365.138 429.53,243.026 460.961,198.242C432.808,182.475 398.081,214.639 383.606,238.477C384.218,251.562 385.214,269.743 389.173,273.677L348.226,315.99C322.076,272.378 304.9,210.28 297.606,157.24C297.349,157.366 297.108,157.496 296.856,157.623C297.041,157.403 297.236,157.186 297.423,156.965C305.313,162.438 315.04,165.605 325.321,166.525C342.534,168.067 361.844,163.775 380.017,153.685C398.189,143.595 412.043,129.471 419.835,114.045C427.625,98.619 429.315,81.183 421.272,66.697C413.23,52.212 397.535,44.427 380.322,42.885C378.172,42.692 375.986,42.59 373.775,42.58L373.773,42.58Z" style="fill:rgb(0,255,188);fill-rule:nonzero;"/>
</svg>
